!!!COM:	Busnoys, Antoine
!!!CDT:	~1430///-1492/11/06
!!!OTL:	In myne zynn
!!!AGN:	Song; Chanson
!!!SCT:	Bus3025
!!!SCA:	Bus3025
!!!voices:	4
**kern	**kern	**kern	**kern
*staff4	*staff3	*staff2	*staff1
*Ivox	*Ivox	*Ivox	*Ivox
*I"Bassus	*I"Tenor	*I"Altus	*I"Superius
*I'B	*I'T	*I'A	*I'S
*>[A,B]	*>[A,B]	*>[A,B]	*>[A,B]
*>A	*>A	*>A	*>A
*clefF4	*clefGv2	*clefG2	*clefG2
*k[b-]	*k[b-]	*k[b-]	*k[b-]
*M2/1	*M2/1	*M2/1	*M2/1
*met(C|)	*met(C|)	*met(C|)	*met(C|)
=1-	=1-	=1-	=1-
!	!	!	!LO:TX:Z=35:t=Ballade
0G	1G	1g	0g
.	2G	1b-	.
.	2G	.	.
=2	=2	=2	=2
0F	0d	2a	0r
.	.	1a	.
.	.	4g	.
.	.	4f	.
=3	=3	=3	=3
0E	1e	4g	1g
.	.	4f	.
.	.	4e	.
.	.	4d	.
.	1g	2.c#i	2g
.	.	.	2g
.	.	4Bni	.
=4	=4	=4	=4
0D	2f	1d	0dd
.	1f	.	.
.	.	1f	.
.	4e	.	.
.	4d	.	.
=5	=5	=5	=5
0r	0c	0e	1ee
.	.	.	1gg
=6	=6	=6	=6
1D	0r	0d	2ff
.	.	.	1ff
2D	.	.	.
2D	.	.	4ee
.	.	.	4dd
=7	=7	=7	=7
0A	0r	0r	0cc
=8	=8	=8	=8
1B-	2G	1d	0r
.	2.B-	.	.
1d	.	2d	.
.	4A	.	.
.	2B-	2d	.
=9	=9	=9	=9
2c	4c	0a	0r
.	4B-	.	.
1c	4A	.	.
.	4G	.	.
.	2.F#i	.	.
4B-	.	.	.
4A	4E	.	.
=10	=10	=10	=10
0G	0G	1b-	2g
.	.	.	2.b-
.	.	1dd	.
.	.	.	4a
.	.	.	2b-
=11	=11	=11	=11
0r	0r	2cc	4cc
.	.	.	4b-
.	.	1cc	4a
.	.	.	4g
.	.	.	1f#i
.	.	4b-	.
.	.	4a	.
=12	=12	=12	=12
1.G	0r	0g	0g
[2E	.	.	.
=13	=13	=13	=13
4E]	1g	1b-	0r
4F	.	.	.
2G	.	.	.
2D	2f	2.a	.
[2G	2e	.	.
.	.	4g	.
=14	=14	=14	=14
2G]	2d	2f	0r
2A	2c	2e	.
2B-	2d	1d	.
[2d	2f	.	.
=15	=15	=15	=15
2d]	1e	2r	1gg
2c	.	2g	.
1r	2d	2a	2ff
.	[2g	2b-	2ee
=16	=16	=16	=16
1r	4g]	1g	2dd
.	4f	.	.
.	4e	.	2cc
.	8dL	.	.
.	8eJ	.	.
1d	2f	[1a	2dd
.	4e	.	2ff
.	4d	.	.
=17	=17	=17	=17
1A	2c	0a]	1ee
.	2B-	.	.
1r	1d	.	2.dd
.	.	.	4cc
=18	=18	=18	=18
1d	2r	0r	4b-
.	.	.	4a
.	2f	.	2a
2c	2e	.	2r
2B-	2d	.	2dd
=19	=19	=19	=19
2A	2f	0r	2cc
2G	2g	.	1b-
2A	1e	.	.
2c	.	.	[2a
=20	=20	=20	=20
1B-	2r	1dd	2a]
.	2d	.	2g
2A	2f	2cc	2a
2G	2g	2b-	2dd
=21	=21	=21	=21
2A	1e	2a	2cc
2E	.	2g	2.b-
1F	1A	2a	.
.	.	.	4a
.	.	2cc	[2a
=22	=22	=22	=22
1G	0d	1b-	4a]
.	.	.	4g
.	.	.	1g
1D	.	1a	.
.	.	.	2f#i
!!LO:LB:i:g=z
=23:|!|:	=23:|!|:	=23:|!|:	=23:|!|:
*>B	*>B	*>B	*>B
*clefF4	*clefGv2	*clefG2	*clefG2
*k[b-]	*k[b-]	*k[b-]	*k[b-]
*M2/1	*M2/1	*M2/1	*M2/1
*met(C|)	*met(C|)	*met(C|)	*met(C|)
0r	2r	2e	1cc
.	2c	1a	.
.	2d	.	1b-
.	2e	2g	.
=24	=24	=24	=24
1r	1.f	2.dd	1a
.	.	4cc	.
1D	.	1a	1r
.	2f	.	.
=25	=25	=25	=25
2AA	2f	0r	1r
1D	2f	.	.
.	1e	.	2r
2C	.	.	2cc
=26	=26	=26	=26
2.G	2d	0r	2dd
.	2r	.	2ee
4F	.	.	.
1D	[1d	.	[1ff
=27	=27	=27	=27
1r	2d]	0r	2ff]
.	4c	.	2ff
.	4B-	.	.
1D	2A	.	2ff
.	[2d	.	2ff
=28	=28	=28	=28
1E	4d]	0r	1ee
.	4c	.	.
.	1c	.	.
1F	.	.	[1dd
.	4Bni	.	.
.	4A	.	.
=29	=29	=29	=29
1G	1Bni	0r	1dd]
1A	1c	.	1r
=30	=30	=30	=30
[0D	0r	[0f	1.dd
.	.	.	4cc
.	.	.	4b-
=31	=31	=31	=31
1D]	0r	1f]	2a
.	.	.	2.dd
[1G	.	1e	.
.	.	.	4cc
.	.	.	[2cc
=32	=32	=32	=32
0G]	0g	0d	2cc]
.	.	.	4bni
.	.	.	4a
.	.	.	1bni
=33	=33	=33	=33
0C	2a	1c	0cc
.	1g	.	.
.	.	2r	.
.	2e	2g	.
=34	=34	=34	=34
0r	1d	2a	0r
.	.	2b-	.
.	2c	[1cc	.
.	2f	.	.
=35	=35	=35	=35
0r	2e	2cc]	0r
.	1a	2cc	.
.	.	2cc	.
.	4g	2cc	.
.	4f	.	.
=36	=36	=36	=36
2r	4g	1b-	0r
.	4f	.	.
2G	4e	.	.
.	4d	.	.
2A	2c	2a	.
2B-	2d	2r	.
=37	=37	=37	=37
1.c	1A	1.a	0r
.	1r	.	.
2c	.	4g	.
.	.	4f	.
=38	=38	=38	=38
2c	0r	2e	0r
2c	.	2.a	.
1B-	.	.	.
.	.	4g	.
.	.	[2g	.
=39	=39	=39	=39
0A	0r	2g]	1.cc
.	.	4f#i	.
.	.	4e	.
.	.	1f#i	.
.	.	.	4b-
.	.	.	4cc
=40	=40	=40	=40
1r	1G	1g	1b-
[1A	[1c	1r	1e
=41	=41	=41	=41
2A]	0c_	0r	1r
4G	.	.	.
4F	.	.	.
2E	.	.	1e
[2A	.	.	.
=42	=42	=42	=42
4A]	1B-	0r	1g
4G	.	.	.
1G	.	.	.
.	[1A	.	1a
4F#i	.	.	.
4E	.	.	.
=43	=43	=43	=43
1F#i	1A]	1r	1cc
1G	1G	1d	1b-
=44	=44	=44	=44
1E	2r	2e	1a
.	2c	2g	.
2D	2d	2f	1r
[2A	2e	2e	.
=45	=45	=45	=45
2A]	1.f	1a	1cc
2G	.	.	.
2B-	.	1r	2dd
2c	2e	.	2ee
=46	=46	=46	=46
1d	1d	0a	1.ff
1A	2r	.	.
.	2c	.	2ee
=47	=47	=47	=47
1B-	2d	0f	1dd
.	4c	.	.
.	4B-	.	.
1F	1A	.	2r
.	.	.	2cc
=48	=48	=48	=48
0r	2G	1b-	2dd
.	2.g	.	4cc
.	.	.	4b-
.	.	1cc	1a
.	4f#i	.	.
.	4f#i	.	.
.	4e	.	.
=49	=49	=49	=49
1G	2g	1b-	2g
.	1e	.	2b-
2A	.	1r	2cc
2B-	2d	.	2dd
=50	=50	=50	=50
1.c	1e	1g	2cc
.	.	.	1ee
.	1r	2a	.
2B-	.	2b-	2dd
=51	=51	=51	=51
1A	0r	1.cc	2ee
.	.	.	2ff
2r	.	.	2gg
2G	.	2b-	2ee
=52	=52	=52	=52
2A	0r	1a	2ff
4G	.	.	4ee
4F	.	.	4dd
1E	.	2r	2.cc#i
.	.	2g	.
.	.	.	4bni
=53	=53	=53	=53
1D	1A	2a	1dd
.	.	4g	.
.	.	4f	.
1A	2c	1e	1r
.	2c	.	.
=54	=54	=54	=54
0D	0d	2d	1r
.	.	1dd	.
.	.	.	1a
.	.	4cc	.
.	.	4b-	.
=55	=55	=55	=55
0r	1c	2a	2cc
.	.	1b-	2cc
.	2B-	.	[1dd
.	[2B-	4a	.
.	.	4g	.
=56	=56	=56	=56
0r	2B-]	2f	1dd]
.	4A	1g	.
.	4G	.	.
.	1A	.	1cc
.	.	2f#i	.
=57	=57	=57	=57
0G	2G	1.g	2b-
.	2d	.	1b-
.	2e	.	.
.	[2g	4f	4a
.	.	4e	4g
=58	=58	=58	=58
1r	2g]	2.d	1a
.	2f	.	.
.	.	4c	.
1E	2g	1e	2g
.	2e	.	[2cc
=59	=59	=59	=59
2G	1d	0r	2cc]
2G	.	.	2bni
[1A	1c	.	[1cc
=60	=60	=60	=60
1A]	2r	1e	2cc]
.	2c	.	4b-
.	.	.	4a
1G	2d	2g	2.b-
.	2e	2g	.
.	.	.	4cc
=61	=61	=61	=61
2F	2f	0a	1a
1F	4e	.	.
.	4d	.	.
.	2c	.	1r
4E	[2d	.	.
4D	.	.	.
=62	=62	=62	=62
1E	2d]	1g	1r
.	2c#i	.	.
2D	1d	2f	[1a
4C	.	[2f	.
4BB-	.	.	.
=63	=63	=63	=63
2AA	2c	2f]	2a]
1D	4B-	4e	4g
.	4A	4d	4f
.	2B-	1e	2g
2C	[2A	.	4f
.	.	.	4e
=64	=64	=64	=64
0D	2A]	[0dl	2f
.	2G	.	1g
.	1A	.	.
.	.	.	2f#i
=65	=65	=65	=65
0Gl	0Gl	0d]	0gl
==	==	==	==
*-	*-	*-	*-
!!!RDF**kern: l=long note in original notation
!!!RDF**kern: i=editorial accidental
!!!ENC:	Chris Gage 04-13-2015
!!!END:	2015/05/05/
!!!EED:	Jesse Rodin
!!!EEV:	2015/09/21/
!!!ONB:	Translated from MusicXML and edited on 2015/09/21/ by Craig Sapp
!!muse2ps: C^@{COM}^i2I150v85,85,85,150Q16
